X:1
T:Title
%%score { ( 1 3 ) | 2 }
L:1/8
M:4/4
K:C
V:1 treble nm="Grand Piano"
V:3 treble 
V:2 bass 
V:1
 z4 z2[Q:1/4=100] E[DF] | [EG]2 [FA][DB] [Ec]2 [CGB][CFA] | [CEG][CFA][B,EG][B,DF] [CE]2 [DF][EG] | %3
 A2 Bc [Fd]2 [Fc]2 | B6 AB | c2 z2 z4 | GA[B,EG][B,DF] E2 FG | AB[Fc][Fd] [Fc][B,FB][DFA][DFB] | %8
 [Ec]6 z2 | [EG]2 [Ge]2 [Fd][Ec][EB][Ec] | [FB][FA][Ac][FA] [EG]2 z2 | [Ec]2 [Ge]2 [Gd]2 [DG][EA] | %12
[M:3/4] Bc BA [B,G]2 |[M:1/4] [CE][DF] |[M:4/4] [EG]2 [FA][DB] [Ec]2 [CGB][CFA] | %15
 [CEG][CFA][B,EG][B,DF] E2 FG | AB[Fc][Fd] [Fc][B,FB][DFA][DFB] |[M:3/4] [CEc]6 |] %18
V:2
 z4 z2 [C,C][C,C] | [C,C]2 [C,C][C,C] [C,C]2 F,F, | G,G,G,,G,, C,2 [C,C][C,C] | %3
 [F,CF]2 [F,A,F][F,A,F] [D,A,]2 [D,D]2 | [G,DF]6 [G,DF][G,DF] | %5
 .[A,CE]2 [E,^G,D][E,B,D] [F,A,C]2 [F,A,F][K:treble][F,CF] | %6
 [G,CE][G,CF][K:bass]G,,G,, [C,C]2 [D,C][E,C] | [F,CF][G,B,F][K:bass][D,A,][D,A,] G,G,G,,G,, | %8
 [C,C]6 z2 | [C,C]2 [C,C]2 [C,C][C,C][C,C][C,C] | [F,C][F,C][F,C][F,C] [C,C]2 z2 | %11
 [C,C]2 [C,C]2 [B,,G,]2 [B,,G,][C,G,] |[M:3/4] [D,G,D][D,A,D] [D,G,D][D,^F,C] [G,,G,]2 | %13
[M:1/4] [C,G,][C,G,] |[M:4/4] [C,C]2 [C,C][C,C] [C,C]2 F,F, | G,G,G,,G,, [C,C]2 [D,C][E,C] | %16
 [F,CF][F,B,F][D,A,][D,A,] G,G,G,,G,, |[M:3/4] C,6 |] %18
V:3
 x8 | x8 | x8 | x8 | x8 | z A,B^G A2 cA | x8 | x8 | x8 | x8 | x8 | x8 |[M:3/4] x6 |[M:1/4] x2 | %14
[M:4/4] x8 | x8 | x8 |[M:3/4] x6 |] %18

